X: 199
T: Bahçe Duvarını Aştım
C: Neşet Ertaş
O: Turkey
F: http://compmusic.upf.edu/node/140
N: hicaz--turku--sofyan--bahce_duvarini--neset_ertas
N: makam= hicaz
N: form= turku
N: usul= sofyan = 4/4
M: 4/4
L: 1/16
K: C _7/8B ^f ^c 
Q: 1/4=123
%%MIDI tuningsystem comma53
z4 c2d2 d4 d4  | d2e2 dcB2 c4 B2A2  | \
w:   |   | 
z4 c2d2 d4 d4  | d2e2 dcB2 c4 B2A2  | 
w:   |   | 
z4 e2dc d4 d4  | cde2 dcB2 c2dc B2A2  | \
w:   |   | 
z4 e2dc d4 d4  | 
w:   | 
cde2 dcB2 c2dc B2A2  | z4 c2d2 d4 d4  | \
w:   |   | 
d2e2 dcB2 c4 B2A2  | 
w:   | 
z4 c2d2 d4 d4  | d2e2 dcB2 c4 B2A2  | \
w:   |   | 
A4 c2d2 e4 e4  | A4 c2d2 e4 e4  | 
w:   |   | 
z4 ee3 e2e6  | e4 e2e2 e2e2 e4  | z4 d3e e2e6  | \
w:  Bah çe  du va  |  *  rı nı  aş tım    |  Bah çe  du va  | 
e4 =f^gfg fgfg ed3  | 
w:  *  rı *  nı  *  aş *  *  *  tım    | 
d2z2 =fef2 f^gfg ed3  | c2d2 cB3 c4 B2A2  | \
w:  *  Sar ma *  şık  gül le  |  re  do *  *  laş tım    | 
z4 c2d2 d2d6  | 
w:  Sar ma şık  gül  | 
d2e2 dcB2 c4 B2A2  | z4 e2dc d4 d4  | \
w:  le re  *  *  *  do laş tım    |  SAZ  | 
cde2 dcB2 c2dc B2A2  | 
w:   | 
z4 e2dc d4 d4  | cde2 dcB2 c2dc B2A2  | \
w:  SAZ  |   | 
z4 c2d2 d4 d4  | 
w:   | 
d2e2 dcB2 c4 B2A2  | z4 c2d2 d4 d4  | \
w:   |   | 
d2e2 dcB2 c4 B2A2  | 
w:   | 
A4 c2d2 e4 e4  | A4 c2d2 e4 e4  | z4 e3e e2e6  | \
w:   |   |  Öp tüm  sev dim   | 
ee3 ee3 e2e6  | 
w:  he lal *  laş tım    | 
z4 e3e e2e2 e4  | e=f2f f2f2 fef2 e2d2  | \
w:  Öp tüm  sev dim   |  he *  lal laş *  tım    | 
e=f2f f2f2 g2gf f2ed  | 
w:  Ya *  nı yo rum  ya nı *  yo rum   | 
e2ed dcB2 c2cd B2A2  | z4 c2d2 d4 d4  | \
w:  ya nı *  yo *  rum  he le    |  Ma il  ol dum   | 
d2de cdB2 c2cd B2A2  | 
w:  gon ca  *  *  *  *  gü le    | 
z4 c2d2 d2d6  | d2e2 dcB2 c4 B2A2  | |


